X:149
M:6/8
L:1/8
Q:3/8=110
K:D
|:A|d2 g faf|g2 e efg|aba afd|(ge)g (fd)f|\
geg fdf|e2 E EFG|AFB AFd|A2 D D2:|

